image/step2.svg

<svg width="300" height="225" viewBox="0 0 300 225" fill="none" xmlns="http://www.w3.org/2000/svg">
<g clip-path="url(#clip0_14_698)">
<path d="M287.742 199.491L288.864 195.063C290.855 194.22 292.891 193.489 294.964 192.875L295.106 194.932L295.681 192.666C298.251 191.931 300 191.608 300 191.608C300 191.608 297.638 200.591 292.683 207.458L286.91 208.472L291.395 209.119C290.772 209.869 290.102 210.579 289.389 211.245C282.182 217.935 274.154 221.004 271.459 218.101C268.763 215.197 272.421 207.42 279.629 200.73C281.863 198.656 284.67 196.991 287.479 195.681L287.742 199.491Z" fill="#E6E6E6"/>
<path d="M277.065 194.682L275.738 190.312C277.005 188.561 278.371 186.883 279.828 185.286L281.013 186.974L280.333 184.736C282.154 182.779 283.484 181.598 283.484 181.598C283.484 181.598 286.105 190.509 285.414 198.949L280.996 202.801L285.169 201.036C285.023 202 284.817 202.955 284.551 203.893C281.839 213.346 276.554 220.123 272.746 219.03C268.937 217.938 268.049 209.389 270.76 199.937C271.601 197.006 273.143 194.131 274.872 191.557L277.065 194.682Z" fill="#E6E6E6"/>
<path d="M299.324 218.715H125V219.391H299.324V218.715Z" fill="#3F3D56"/>
<path d="M8.18179 88.3024C5.82224 84.7999 4.80792 78.5793 9.1961 75.5137C11.3724 73.9933 14.0143 74.1788 16.3016 74.8478C19.4652 75.7733 22.2786 77.6598 24.7122 79.7705C27.5192 82.205 29.9224 85.0592 32.292 87.9146C34.6314 90.7334 37.0022 93.5194 39.4891 96.2062C44.3904 101.499 49.6233 106.475 55.1564 111.103C60.5789 115.644 66.2815 119.84 72.2305 123.666C75.184 125.564 78.2006 127.365 81.2804 129.069C84.1398 130.712 87.0972 132.178 90.136 133.459C94.178 135.085 101.104 137.356 104.688 132.797C106.589 130.379 106.684 127.099 106.255 124.343C105.736 121.012 104.427 117.903 103.138 114.866C97.1425 100.74 91.0766 86.6478 85.0454 72.5393C83.6377 69.2465 82.1881 65.9663 81.0188 62.5631C79.9241 59.3769 79.0128 56.0176 78.9912 52.5475C78.9723 49.5165 79.6308 46.0962 81.9365 43.7616C83.8487 41.8254 86.5278 41.1845 89.0506 41.1992C95.2965 41.2356 101.165 44.4149 106.016 47.7658C112.043 51.929 117.367 56.9863 123.37 61.1808C128.218 64.5677 133.919 67.6368 140.106 68.0254C142.478 68.1744 144.995 67.858 147.156 66.562C149.222 65.2653 150.726 63.2411 151.373 60.8893C152.183 58.1632 152.082 55.2836 151.652 52.5966C151.115 49.4501 150.14 46.3941 148.757 43.5174C145.832 37.2672 141.835 31.666 138.393 25.7339C136.705 22.8246 135.057 19.8264 134.005 16.5815C133.113 13.8325 132.388 10.5787 133.269 7.59811C135.086 1.44845 142.472 3.76249 146.218 5.53768C148.755 6.78426 151.201 8.20871 153.537 9.80038C154.04 10.1329 154.53 9.25077 154.029 8.91979C151.576 7.24064 148.997 5.75395 146.314 4.47305C144.031 3.4283 141.518 2.51694 138.899 2.56704C136.699 2.60911 134.482 3.53055 133.191 5.49866C131.663 7.82726 131.768 10.8378 132.179 13.3361C132.723 16.6398 134.021 19.6917 135.518 22.5955C137.094 25.6538 138.893 28.578 140.702 31.4891C144.318 37.3062 148.278 43.191 150.082 49.9822C151.343 54.7328 152.14 62.1528 147.006 65.543C144.727 67.048 141.934 67.2658 139.412 66.9823C136.364 66.6397 133.461 65.6267 130.75 64.3543C118.108 58.4208 109.686 46.1005 96.2083 41.5443C91.6258 39.9952 85.2131 39.0061 81.1805 43.1952C79.0856 45.3713 78.2454 48.3926 78.0566 51.2315C77.8306 54.6318 78.5404 57.9781 79.5051 61.1271C80.5752 64.4271 81.82 67.668 83.2342 70.8359C84.7451 74.3761 86.2581 77.9154 87.773 81.4537L96.9566 102.936L101.519 113.61C102.912 116.868 104.405 120.141 105.131 123.673C105.725 126.565 105.894 130.544 103.347 132.87C101.324 134.717 98.3685 134.632 96.0005 134.203C92.9344 133.647 90.0498 132.433 87.3044 131.094C84.1378 129.549 81.0552 127.835 78.0288 126.052C71.7992 122.377 65.8195 118.294 60.1287 113.829C54.4159 109.354 48.9944 104.519 43.8974 99.3537C41.321 96.7424 38.8314 94.048 36.4286 91.2703C33.9524 88.4064 31.6271 85.4069 29.0625 82.6221C26.7428 80.1033 24.2033 77.7683 21.251 75.9918C18.7858 74.5085 15.8716 73.2681 12.8397 73.3658C11.7703 73.3957 10.7191 73.6504 9.75455 74.1132C8.78998 74.576 7.93362 75.2367 7.24114 76.0522C5.88426 77.7392 5.15108 79.8428 5.1654 82.0077C5.18103 84.4511 5.93501 86.8327 7.32839 88.8399C7.66547 89.3402 8.52036 88.8049 8.18179 88.3024V88.3024Z" fill="#E6E6E6"/>
<path d="M46.8292 6.8031H6.34963V42.7446H46.8292V6.8031Z" fill="#E6E6E6"/>
<path d="M46.8292 71.4978H6.34963V107.439H46.8292V71.4978Z" fill="#00BAFC"/>
<path d="M176.897 6.8031H136.417V42.7446H176.897V6.8031Z" fill="#00BAFC"/>
<path d="M176.897 71.4978H136.417V107.439H176.897V71.4978Z" fill="#E6E6E6"/>
<path d="M112.323 6.8031H71.843V42.7446H112.323V6.8031Z" fill="#00BAFC"/>
<path d="M112.323 71.4978H71.843V107.439H112.323V71.4978Z" fill="#00BAFC"/>
<path d="M71.9595 13.5135C75.6911 13.5135 78.7162 10.4884 78.7162 6.75676C78.7162 3.0251 75.6911 0 71.9595 0C68.2278 0 65.2027 3.0251 65.2027 6.75676C65.2027 10.4884 68.2278 13.5135 71.9595 13.5135Z" fill="#3F3D56"/>
<path d="M137.162 13.5135C140.894 13.5135 143.919 10.4884 143.919 6.75676C143.919 3.0251 140.894 0 137.162 0C133.431 0 130.405 3.0251 130.405 6.75676C130.405 10.4884 133.431 13.5135 137.162 13.5135Z" fill="#3F3D56"/>
<path d="M6.75676 78.3784C10.4884 78.3784 13.5135 75.3533 13.5135 71.6216C13.5135 67.89 10.4884 64.8649 6.75676 64.8649C3.0251 64.8649 0 67.89 0 71.6216C0 75.3533 3.0251 78.3784 6.75676 78.3784Z" fill="#3F3D56"/>
<path d="M71.9595 78.3784C75.6911 78.3784 78.7162 75.3533 78.7162 71.6216C78.7162 67.89 75.6911 64.8649 71.9595 64.8649C68.2278 64.8649 65.2027 67.89 65.2027 71.6216C65.2027 75.3533 68.2278 78.3784 71.9595 78.3784Z" fill="#3F3D56"/>
<path d="M229.493 215.249C229.493 215.249 220.05 215.976 221.019 219.366C221.987 222.756 229.493 222.271 229.493 222.271C229.493 222.271 235.305 221.787 238.452 222.756C241.6 223.724 245.232 222.756 245.474 221.061C245.716 219.366 243.779 218.155 243.779 218.155L242.569 215.734L229.493 215.249Z" fill="#2F2E41"/>
<path d="M204.675 139.583L203.706 143.457C203.706 143.457 199.348 152.416 204.675 152.416C210.002 152.416 208.065 144.183 208.065 144.183L208.549 140.309L204.675 139.583Z" fill="#9F616A"/>
<path d="M251.406 136.435L252.375 140.309C252.375 140.309 256.733 149.268 251.406 149.268C246.079 149.268 248.017 141.035 248.017 141.035L247.532 137.161L251.406 136.435Z" fill="#9F616A"/>
<path d="M226.225 70.5746C231.975 70.5746 236.636 65.9131 236.636 60.1628C236.636 54.4126 231.975 49.7511 226.225 49.7511C220.474 49.7511 215.813 54.4126 215.813 60.1628C215.813 65.9131 220.474 70.5746 226.225 70.5746Z" fill="#9F616A"/>
<path d="M223.077 68.1533C223.077 68.1533 224.287 73.7224 223.561 76.3858C222.835 79.0493 238.573 75.9016 238.573 75.9016C238.573 75.9016 233.004 66.7005 233.246 66.4584L223.077 68.1533Z" fill="#9F616A"/>
<path d="M225.498 74.4488C225.498 74.4488 221.14 73.2381 219.687 74.6909C218.234 76.1437 209.759 80.26 209.759 80.26L215.571 115.854L240.753 110.285L245.111 76.628C245.111 76.628 238.245 72.6016 237.077 73.4041C235.91 74.2067 225.498 74.4488 225.498 74.4488Z" fill="#D0CDE1"/>
<path d="M211.697 80.5021L210.534 79.8788C210.534 79.8788 206.127 80.7442 206.37 84.1341C206.612 87.5239 207.58 106.41 207.58 106.41L203.706 140.551L210.728 141.762L217.75 113.19L211.697 80.5021Z" fill="#D0CDE1"/>
<path d="M244.385 77.3544L245.547 76.7311C245.547 76.7311 249.954 77.5965 249.711 80.9864C249.469 84.3762 248.501 103.263 248.501 103.263L252.375 137.404L245.353 138.614L238.331 110.042L244.385 77.3544Z" fill="#D0CDE1"/>
<path d="M215.813 112.222L214.844 126.992L211.697 156.532L216.297 217.792L232.278 218.276L227.435 159.922L232.278 139.825L248.107 139.238C248.107 139.238 249.227 116.096 240.268 108.832L215.813 112.222Z" fill="#2F2E41"/>
<path d="M233.246 136.435L230.704 189.825L229.856 216.823L244.143 218.276L247.747 138.878L242.205 133.287L233.246 136.435Z" fill="#2F2E41"/>
<path d="M230.825 46.3612C230.825 46.3612 221.382 45.1506 218.718 49.7511C218.718 49.7511 217.992 53.141 215.571 54.3516C213.149 55.5623 216.055 59.6786 216.781 60.8892C217.508 62.0999 219.445 69.1218 217.266 70.8167C215.086 72.5116 221.14 77.3543 221.14 77.3543C221.14 77.3543 224.045 81.2284 221.624 84.134C219.203 87.0396 224.772 88.0082 224.772 88.0082C224.772 88.0082 223.561 96.2407 225.74 94.0615C225.74 94.0615 226.709 112.706 235.91 101.083C245.111 89.461 248.985 83.8919 245.111 79.2914C241.237 74.6908 244.142 70.5746 244.142 70.5746C244.142 70.5746 245.353 68.1532 242.69 64.5212C240.026 60.8892 240.026 46.3612 230.825 46.3612Z" fill="#2F2E41"/>
<path d="M217.145 216.702C217.145 216.702 207.701 217.429 208.67 220.818C209.638 224.208 217.145 223.724 217.145 223.724C217.145 223.724 222.956 223.24 226.103 224.208C229.251 225.177 232.883 224.208 233.125 222.513C233.367 220.818 231.43 219.608 231.43 219.608L230.22 217.186L217.145 216.702Z" fill="#2F2E41"/>
</g>
<defs>
<clipPath id="clip0_14_698">
<rect width="300" height="224.593" fill="white"/>
</clipPath>
</defs>
</svg>

<svg width="300" height="225" fill="none" xmlns="http://www.w3.org/2000/svg"><g clip-path="url(#a)"><path d="m287.742 199.491 1.122-4.428a57.599 57.599 0 0 1 6.1-2.188l.142 2.057.575-2.266c2.57-.735 4.319-1.058 4.319-1.058s-2.362 8.983-7.317 15.85l-5.773 1.014 4.485.647c-.623.75-1.293 1.46-2.006 2.126-7.207 6.69-15.235 9.759-17.93 6.856-2.696-2.904.962-10.681 8.17-17.371 2.234-2.074 5.041-3.739 7.85-5.049l.263 3.81Z" fill="#E6E6E6"/><path d="m277.065 194.682-1.327-4.37a57.273 57.273 0 0 1 4.09-5.026l1.185 1.688-.68-2.238c1.821-1.957 3.151-3.138 3.151-3.138s2.621 8.911 1.93 17.351l-4.418 3.852 4.173-1.765a23.22 23.22 0 0 1-.618 2.857c-2.712 9.453-7.997 16.23-11.805 15.137-3.809-1.092-4.697-9.641-1.986-19.093.841-2.931 2.383-5.806 4.112-8.38l2.193 3.125Z" fill="#E6E6E6"/><path d="M299.324 218.715H125v.676h174.324v-.676Z" fill="#3F3D56"/><path d="M8.182 88.302C5.822 84.8 4.808 78.58 9.196 75.514c2.176-1.52 4.818-1.335 7.106-.666 3.163.925 5.977 2.812 8.41 4.922 2.807 2.435 5.21 5.29 7.58 8.145 2.34 2.818 4.71 5.604 7.197 8.291a170.042 170.042 0 0 0 15.667 14.897 168.855 168.855 0 0 0 17.075 12.563 160.132 160.132 0 0 0 9.05 5.403 80.678 80.678 0 0 0 8.855 4.39c4.042 1.626 10.968 3.897 14.552-.662 1.901-2.418 1.996-5.698 1.567-8.454-.519-3.331-1.828-6.44-3.117-9.477-5.996-14.126-12.061-28.218-18.093-42.327-1.407-3.293-2.857-6.573-4.026-9.976-1.095-3.186-2.006-6.545-2.028-10.016-.019-3.03.64-6.45 2.945-8.785 1.913-1.937 4.592-2.578 7.115-2.563 6.245.037 12.114 3.216 16.965 6.567 6.027 4.163 11.351 9.22 17.354 13.415 4.848 3.387 10.549 6.456 16.736 6.844 2.372.15 4.889-.167 7.05-1.463a9.75 9.75 0 0 0 4.217-5.673c.81-2.726.709-5.605.279-8.292a34.256 34.256 0 0 0-2.895-9.08c-2.925-6.25-6.922-11.851-10.364-17.783-1.688-2.91-3.336-5.908-4.388-9.153-.892-2.748-1.617-6.002-.736-8.983 1.817-6.15 9.203-3.836 12.949-2.06a59.953 59.953 0 0 1 7.319 4.262c.503.333.993-.55.492-.88a57.56 57.56 0 0 0-7.715-4.447c-2.283-1.045-4.796-1.956-7.415-1.906-2.2.042-4.417.964-5.708 2.932-1.528 2.328-1.423 5.339-1.012 7.837.544 3.304 1.842 6.356 3.339 9.26 1.576 3.058 3.375 5.982 5.184 8.893 3.616 5.817 7.576 11.702 9.38 18.493 1.261 4.75 2.058 12.17-3.076 15.561-2.279 1.505-5.072 1.723-7.594 1.44-3.048-.343-5.951-1.356-8.662-2.629-12.642-5.933-21.064-18.254-34.542-22.81-4.582-1.549-10.995-2.538-15.028 1.651-2.094 2.176-2.935 5.198-3.123 8.036-.226 3.4.483 6.747 1.448 9.896a97.89 97.89 0 0 0 3.73 9.709c1.51 3.54 3.023 7.08 4.538 10.618l9.184 21.482 4.562 10.674c1.393 3.258 2.886 6.531 3.612 10.063.594 2.892.763 6.871-1.784 9.197-2.023 1.847-4.978 1.762-7.346 1.333-3.067-.556-5.951-1.77-8.697-3.109-3.166-1.545-6.249-3.259-9.275-5.042a163.95 163.95 0 0 1-17.9-12.223 170.61 170.61 0 0 1-16.232-14.475 167.973 167.973 0 0 1-7.468-8.084c-2.477-2.864-4.802-5.863-7.367-8.648-2.32-2.519-4.859-4.854-7.811-6.63-2.465-1.484-5.38-2.724-8.411-2.626a7.625 7.625 0 0 0-5.599 2.686 9.403 9.403 0 0 0-2.076 5.956c.016 2.443.77 4.825 2.163 6.832.337.5 1.192-.035.854-.538ZM46.83 6.803H6.35v35.942h40.48V6.803Z" fill="#E6E6E6"/><path d="M46.83 71.498H6.35v35.941h40.48V71.498ZM176.897 6.803h-40.48v35.942h40.48V6.803Z" fill="#00BAFC"/><path d="M176.897 71.498h-40.48v35.941h40.48V71.498Z" fill="#E6E6E6"/><path d="M112.323 6.803h-40.48v35.942h40.48V6.803ZM112.323 71.498h-40.48v35.941h40.48V71.498Z" fill="#00BAFC"/><path d="M71.96 13.514A6.757 6.757 0 1 0 71.96 0a6.757 6.757 0 0 0 0 13.514ZM137.162 13.514a6.757 6.757 0 1 0 0-13.514 6.757 6.757 0 0 0 0 13.514ZM6.757 78.378a6.757 6.757 0 1 0 0-13.513 6.757 6.757 0 0 0 0 13.513ZM71.96 78.378a6.757 6.757 0 1 0 0-13.513 6.757 6.757 0 0 0 0 13.513Z" fill="#3F3D56"/><path d="M229.493 215.249s-9.443.727-8.474 4.117c.968 3.39 8.474 2.905 8.474 2.905s5.812-.484 8.959.485c3.148.968 6.78 0 7.022-1.695s-1.695-2.906-1.695-2.906l-1.21-2.421-13.076-.485Z" fill="#2F2E41"/><path d="m204.675 139.583-.969 3.874s-4.358 8.959.969 8.959 3.39-8.233 3.39-8.233l.484-3.874-3.874-.726ZM251.406 136.435l.969 3.874s4.358 8.959-.969 8.959-3.389-8.233-3.389-8.233l-.485-3.874 3.874-.726ZM226.225 70.575c5.75 0 10.411-4.662 10.411-10.412 0-5.75-4.661-10.412-10.411-10.412-5.751 0-10.412 4.662-10.412 10.412 0 5.75 4.661 10.412 10.412 10.412Z" fill="#9F616A"/><path d="M223.077 68.153s1.21 5.57.484 8.233c-.726 2.663 15.012-.484 15.012-.484s-5.569-9.201-5.327-9.444l-10.169 1.695Z" fill="#9F616A"/><path d="M225.498 74.449s-4.358-1.21-5.811.242c-1.453 1.453-9.928 5.569-9.928 5.569l5.812 35.594 25.182-5.569 4.358-33.657s-6.866-4.026-8.034-3.224c-1.167.803-11.579 1.045-11.579 1.045Z" fill="#D0CDE1"/><path d="m211.697 80.502-1.163-.623s-4.407.865-4.164 4.255c.242 3.39 1.21 22.276 1.21 22.276l-3.874 34.141 7.022 1.211 7.022-28.572-6.053-32.688ZM244.385 77.354l1.162-.623s4.407.866 4.164 4.255c-.242 3.39-1.21 22.277-1.21 22.277l3.874 34.141-7.022 1.21-7.022-28.572 6.054-32.688Z" fill="#D0CDE1"/><path d="m215.813 112.222-.969 14.77-3.147 29.54 4.6 61.26 15.981.484-4.843-58.354 4.843-20.097 15.829-.587s1.12-23.142-7.839-30.406l-24.455 3.39Z" fill="#2F2E41"/><path d="m233.246 136.435-2.542 53.39-.848 26.998 14.287 1.453 3.604-79.398-5.542-5.591-8.959 3.148ZM230.825 46.361s-9.443-1.21-12.107 3.39c0 0-.726 3.39-3.147 4.6-2.422 1.211.484 5.328 1.21 6.538.727 1.21 2.664 8.233.485 9.928-2.18 1.695 3.874 6.537 3.874 6.537s2.905 3.874.484 6.78 3.148 3.874 3.148 3.874-1.211 8.233.968 6.053c0 0 .969 18.645 10.17 7.022 9.201-11.622 13.075-17.191 9.201-21.792-3.874-4.6-.969-8.716-.969-8.716s1.211-2.422-1.452-6.054c-2.664-3.632-2.664-18.16-11.865-18.16ZM217.145 216.702s-9.444.727-8.475 4.116c.968 3.39 8.475 2.906 8.475 2.906s5.811-.484 8.958.484c3.148.969 6.78 0 7.022-1.695s-1.695-2.905-1.695-2.905l-1.21-2.422-13.075-.484Z" fill="#2F2E41"/></g><defs><clipPath id="a"><path fill="#fff" d="M0 0h300v224.593H0z"/></clipPath></defs></svg>
